SVG_Azure_Grouped/Security/Activity Log.svg

<?xml version="1.0" encoding="UTF-8" standalone="no"?>
<!DOCTYPE svg PUBLIC "-//W3C//DTD SVG 1.1//EN" "http://www.w3.org/Graphics/SVG/1.1/DTD/svg11.dtd">
<!-- Generated by Microsoft Visio, SVG Export Activity Log.svg Page-1 -->
<svg xmlns="http://www.w3.org/2000/svg" xmlns:xlink="http://www.w3.org/1999/xlink" xmlns:ev="http://www.w3.org/2001/xml-events"
		width="1.61375in" height="1.73225in" viewBox="0 0 116.19 124.722" xml:space="preserve" color-interpolation-filters="sRGB"
		class="st4">
	<style type="text/css">
	<![CDATA[
		.st1 {fill:#005ba1;stroke:none;stroke-linecap:butt;stroke-width:34}
		.st2 {fill:#ffffff;stroke:none;stroke-linecap:butt;stroke-width:34}
		.st3 {fill:url(#grad0-10);stroke:none;stroke-linecap:butt;stroke-width:34}
		.st4 {fill:none;fill-rule:evenodd;font-size:12px;overflow:visible;stroke-linecap:square;stroke-miterlimit:3}
	]]>
	</style>

	<defs id="Patterns_And_Gradients">
		<linearGradient id="grad0-10" x1="0" y1="0" x2="1" y2="0" gradientTransform="rotate(-90 0.5 0.5)">
			<stop offset="0" stop-color="#1988d9" stop-opacity="1"/>
			<stop offset="0.9" stop-color="#54aef0" stop-opacity="1"/>
		</linearGradient>
	</defs>
	<g>
		<title>Page-1</title>
		<g id="group16653-1" transform="translate(34,-34.0157)">
			<title>Activity Log.16653</title>
			<g id="group16654-2">
				<title>Sheet.16654</title>
				<g id="shape16655-3" transform="translate(0,-0.26632)">
					<title>Sheet.16655</title>
					<path d="M0.07 73.66 L4.18 68.96 A2.00504 1.96411 0 0 1 5.71 68.3 L45.16 68.3 A2.75268 2.69649 0 0 1 48.19 71.06
								 L48.19 119.33 A1.93707 1.89753 0 0 1 47.51 120.76 L43.09 124.72 L2.75 124.72 L0 123.62 L0.07 73.66
								 Z" class="st1"/>
				</g>
				<g id="shape16656-5" transform="translate(3.39838,-2.36359)">
					<title>Sheet.16656</title>
					<path d="M0 75.72 L2.51 72.92 A1.69919 1.6645 0 0 1 3.7 72.32 L40.71 72.32 A1.76716 1.73108 0 0 1 42.48 74.05
								 L42.48 119.93 A1.76716 1.73108 0 0 1 41.9 121.23 L37.96 124.72 L0 75.72 Z" class="st2"/>
				</g>
				<g id="shape16657-7" transform="translate(0.101951,0)">
					<title>Sheet.16657</title>
					<path d="M40.98 73.32 L0.2 73.32 a0.203903 0.19974 -180 0 0 -0.203903 0.19974 L0 123.46 A1.32537 1.29831 -180
								 0 0 1.33 124.72 L40.98 124.72 A1.29138 1.26502 -180 0 0 42.28 123.46 L42.28 74.62 A1.32537 1.29831
								 -180 0 0 40.98 73.32 Z" class="st3"/>
				</g>
				<g id="shape16658-11" transform="translate(9.54944,-29.7946)">
					<title>Sheet.16658</title>
					<path d="M-0 123.79 a0.951567 0.932142 -180 0 0 0.951545 0.932121 L21.41 124.72 a0.951567 0.932142 -180 0 0 0.951545
								 -0.932121 L22.36 117.73 a0.951567 0.932142 -180 0 0 -0.951545 -0.932121 L0.95 116.8 a0.951567 0.932142
								 -180 0 0 -0.951545 0.932121 L0 123.79 Z" class="st2"/>
				</g>
			</g>
		</g>
	</g>
</svg>

<?xml version="1.0" encoding="UTF-8" standalone="no"?>
<!-- Generated by Microsoft Visio, SVG Export Activity Log.svg Page-1 -->

<svg
   xmlns:dc="http://purl.org/dc/elements/1.1/"
   xmlns:cc="http://creativecommons.org/ns#"
   xmlns:rdf="http://www.w3.org/1999/02/22-rdf-syntax-ns#"
   xmlns:svg="http://www.w3.org/2000/svg"
   xmlns="http://www.w3.org/2000/svg"
   xmlns:sodipodi="http://sodipodi.sourceforge.net/DTD/sodipodi-0.dtd"
   xmlns:inkscape="http://www.inkscape.org/namespaces/inkscape"
   width="0.66932124in"
   height="0.78750247in"
   viewBox="0 0 48.19113 56.700178"
   xml:space="preserve"
   class="st4"
   version="1.1"
   id="svg40"
   sodipodi:docname="Activity Log.svg"
   style="font-size:12px;overflow:visible;color-interpolation-filters:sRGB;fill:none;fill-rule:evenodd;stroke-linecap:square;stroke-miterlimit:3"
   inkscape:version="0.92.5 (2060ec1f9f, 2020-04-08)"><metadata
   id="metadata44"><rdf:RDF><cc:Work
       rdf:about=""><dc:format>image/svg+xml</dc:format><dc:type
         rdf:resource="http://purl.org/dc/dcmitype/StillImage" /></cc:Work></rdf:RDF></metadata><sodipodi:namedview
   pagecolor="#ffffff"
   bordercolor="#666666"
   borderopacity="1"
   objecttolerance="10"
   gridtolerance="10"
   guidetolerance="10"
   inkscape:pageopacity="0"
   inkscape:pageshadow="2"
   inkscape:window-width="640"
   inkscape:window-height="480"
   id="namedview42"
   showgrid="false"
   inkscape:zoom="1.4191562"
   inkscape:cx="32.126667"
   inkscape:cy="37.791101"
   inkscape:window-x="0"
   inkscape:window-y="0"
   inkscape:window-maximized="0"
   inkscape:current-layer="svg40" />
	<style
   type="text/css"
   id="style2">
	<![CDATA[
		.st1 {fill:#005ba1;stroke:none;stroke-linecap:butt;stroke-width:34}
		.st2 {fill:#ffffff;stroke:none;stroke-linecap:butt;stroke-width:34}
		.st3 {fill:url(#grad0-10);stroke:none;stroke-linecap:butt;stroke-width:34}
		.st4 {fill:none;fill-rule:evenodd;font-size:12px;overflow:visible;stroke-linecap:square;stroke-miterlimit:3}
	]]>
	</style>

	<defs
   id="Patterns_And_Gradients">
		<linearGradient
   id="grad0-10"
   x1="-0.0043032115"
   y1="66.501022"
   x2="46.61537"
   y2="66.501022"
   gradientTransform="scale(0.90699703,1.1025394)"
   gradientUnits="userSpaceOnUse">
			<stop
   offset="0"
   stop-color="#1988d9"
   stop-opacity="1"
   id="stop4" />
			<stop
   offset="0.9"
   stop-color="#54aef0"
   stop-opacity="1"
   id="stop6" />
		</linearGradient>
	</defs>
	<g
   id="g38"
   transform="translate(-34,-34.004148)">
		<title
   id="title10">Page-1</title>
		<g
   id="group17046-1"
   transform="translate(34,-34.0157)">
			<title
   id="title12">Activity Log.17046</title>
			<g
   id="group17047-2">
				<title
   id="title14">Sheet.17047</title>
				<g
   id="shape17048-3"
   transform="translate(0,-0.26632)">
					<title
   id="title16">Sheet.17048</title>
					<path
   d="m 0.07,73.66 4.11,-4.7 A 2.00504,1.96411 0 0 1 5.71,68.3 h 39.45 a 2.75268,2.69649 0 0 1 3.03,2.76 v 48.27 a 1.93707,1.89753 0 0 1 -0.68,1.43 l -4.42,3.96 H 2.75 L 0,123.62 Z"
   class="st1"
   id="path18"
   inkscape:connector-curvature="0"
   style="fill:#005ba1;stroke:none;stroke-width:34;stroke-linecap:butt" />
				</g>
				<g
   id="shape17049-5"
   transform="translate(3.39838,-2.36359)">
					<title
   id="title21">Sheet.17049</title>
					<path
   d="m 0,75.72 2.51,-2.8 a 1.69919,1.6645 0 0 1 1.19,-0.6 h 37.01 a 1.76716,1.73108 0 0 1 1.77,1.73 v 45.88 a 1.76716,1.73108 0 0 1 -0.58,1.3 l -3.94,3.49 z"
   class="st2"
   id="path23"
   inkscape:connector-curvature="0"
   style="fill:#ffffff;stroke:none;stroke-width:34;stroke-linecap:butt" />
				</g>
				<g
   id="shape17050-7"
   transform="translate(0.101951)">
					<title
   id="title26">Sheet.17050</title>
					<path
   d="M 40.98,73.32 H 0.2 a 0.203903,0.19974 -180 0 0 -0.203903,0.19974 L 0,123.46 a 1.32537,1.29831 -180 0 0 1.33,1.26 h 39.65 a 1.29138,1.26502 -180 0 0 1.3,-1.26 V 74.62 a 1.32537,1.29831 -180 0 0 -1.3,-1.3 z"
   class="st3"
   id="path28"
   inkscape:connector-curvature="0"
   style="fill:url(#grad0-10);stroke:none;stroke-width:34;stroke-linecap:butt" />
				</g>
				<g
   id="shape17051-11"
   transform="translate(9.54944,-29.7946)">
					<title
   id="title31">Sheet.17051</title>
					<path
   d="m 0,123.79 a 0.951567,0.932142 -180 0 0 0.951545,0.93212 L 21.41,124.72 a 0.951567,0.932142 -180 0 0 0.951545,-0.93212 L 22.36,117.73 a 0.951567,0.932142 -180 0 0 -0.951545,-0.93212 L 0.95,116.8 a 0.951567,0.932142 -180 0 0 -0.951545,0.93212 z"
   class="st2"
   id="path33"
   inkscape:connector-curvature="0"
   style="fill:#ffffff;stroke:none;stroke-width:34;stroke-linecap:butt" />
				</g>
			</g>
		</g>
	</g>
</svg>
